X:1
T:Blue Bird -- Reel
R:reel
B:Ryan's Mammoth Collection
N: 178
N:The book has the triplets written as demisemiquavers.
Z:Contributed by Ray Davies,  ray:davies99.freeserve.co.uk
M:2/4
L:1/16
K:F
v(C2|\
F3)(C E3)C | (3.F.F.F(FD) E3C | F3G .A.d(dc) | .A2(FA) GFD(C |
F3)(C E3)C | (3.F.F.F(FD) E3C | F3G .A.d(dc) | (AF).G.E F2  ::
uc2|\
.f2.c2.f2.A2 | {g}fefa .g.e.c2 | kg2kc2kg2kc2 | {a}g^fga .g.e.c2 |
.b.b.b.g .a.a.a.f | {a}gfeg fcAc | dfeg {a}fefd | cbge f2  :|
